X:1
T:Title
%%score { 1 | 2 }
L:1/8
M:3/8
K:G
V:1 treble nm="Grand Piano"
V:2 treble 
V:1
 z z[Q:1/4=84] d | dGc | [DB][B,D][DB] | ADA | [B,DG]2 [B,D] | [CE][Ec][CE] | [B,D][DB][DG] | %7
 [DA]3- | [DA]2 [Fd] | dGc | [DB][B,D][DB] | ADA | [B,DG]2 [B,D] | [CE][EA][EG] |[M:7/16] FB3/2A | %15
[M:3/8] [B,DG]3- |[M:1/4] [B,DG]2 |[M:2/4] [GB][Fd] [FA]2 | [Fc]B G2 | DE [Ec][CE] | [Ec] [DB]3 | %21
 [GB][Fd] [FA]2 | [Fc]B G2 | %23
 DE [Ec][CD][Q:1/4=83][Q:1/4=82][Q:1/4=80][Q:1/4=79][Q:1/4=78][Q:1/4=77][Q:1/4=75][Q:1/4=74] | %24
[M:3/8] [CA] [B,G]2-[Q:1/4=73][Q:1/4=72][Q:1/4=70][Q:1/4=69][Q:1/4=68][Q:1/4=67][Q:1/4=65][Q:1/4=64] | %25
 [B,G] z z |] %26
V:2
 z z [G,B,G] | [G,B,G][K:bass][G,B,D][G,E] | [G,,G,][G,,G,][G,,G,] | [D,CD][D,C][D,CD] | %4
 [G,,G,]2 [G,,G,] | [C,G,][C,G,][C,G,] | [G,,G,][G,,G,][B,,G,] | [D,F,]3- | [D,F,]2 [D,C] | %9
 [G,B,G][G,B,D][K:bass][G,E] | [G,,G,][G,,G,][G,,G,] | [D,CD][D,C][D,CD] | [G,,G,]2 [G,,G,] | %13
 [C,G,][C,G,][C,G,] |[M:7/16] [D,CD][D,CD]3/2[D,CD] |[M:3/8] [G,,G,]3- |[M:1/4] [G,,G,]2 | %17
[M:2/4] [G,D][D,D] [D,D]2 | [D,D][K:treble][G,DG] [G,B,D]2 | [G,B,][C,G,C] [C,G,][C,G,] | %20
 [C,A,] [G,,G,]3 | [G,D][D,D] [D,D]2 | [D,D][K:treble][G,DG] [G,B,D]2 | %23
 [G,B,][C,G,C] [C,G,][D,F,] |[M:3/8] [D,F,] [G,,G,]2- | [G,,G,] z z |] %26

